packages/core/src/svgs/huahua.svg

<svg width="24" height="24" viewBox="0 0 24 24" fill="none" xmlns="http://www.w3.org/2000/svg">
<g clip-path="url(#clip0_31_11609)">
<path d="M0 0H24V24H0V0Z" fill="#F1A841"/>
<path d="M15.9643 6.37719C15.2486 6.71148 14.6657 7.15291 14.2157 7.71005C13.5034 7.35772 12.7122 7.19509 11.9186 7.23789C11.1251 7.28068 10.356 7.52745 9.68569 7.95434C9.23639 7.36598 8.65109 6.89539 7.97998 6.58291C9.10666 5.68115 10.4977 5.17324 11.9403 5.13687C13.383 5.10049 14.7979 5.53765 15.9686 6.38148L15.9643 6.37719Z" fill="#FED72E"/>
<path d="M18.42 9.59978C18.07 10.5021 17.5474 11.3275 16.8814 12.0298L16.8728 12.0255L16.8686 12.0212C16.38 11.3183 15.4157 11.0055 14.6486 11.4383C12.9514 12.3941 13.8 14.9269 15.7457 14.6741C15.87 14.6569 15.9986 14.5841 16.1314 14.5626H16.14L16.1486 14.5712V14.5883C15.7399 15.2302 15.1809 15.7627 14.52 16.1398C14.7386 15.4198 14.4643 14.8283 14.0057 14.3612C13.8043 14.1555 13.4657 13.9241 13.2986 13.6412C12.9257 13.0069 12.9514 12.0255 12.9343 11.3526C12.9301 11.0985 12.8623 10.8495 12.7371 10.6283C12.5828 10.3583 12.3171 10.3155 12.1157 10.5683C11.9786 10.7398 11.91 10.9412 11.9143 11.1683C11.9143 11.8112 12.2143 13.5212 11.43 14.0569C10.3843 14.7726 10.1528 15.7541 11.0614 16.7141C9.00427 16.2983 7.48713 14.6998 7.26427 12.5655C7.25916 12.5344 7.24412 12.5059 7.22141 12.4841C6.55126 11.8042 5.99422 11.0214 5.57141 10.1655C5.28683 9.51711 5.14085 8.81643 5.14284 8.10835C5.1557 7.61978 5.3357 6.97692 5.34856 6.38549C5.3657 5.69978 7.6457 6.45406 7.97999 6.57835C8.6657 6.90835 9.23999 7.36692 9.6857 7.95406L9.7757 8.08263C9.79713 8.11263 9.82284 8.12121 9.85284 8.10406C10.4877 7.79365 11.1813 7.62167 11.8876 7.59951C12.5939 7.57734 13.2969 7.7055 13.95 7.97549C13.98 7.99263 14.0057 7.98406 14.0228 7.95835L14.2157 7.70978C14.6657 7.15263 15.2443 6.71121 15.9643 6.38121C16.5343 6.18835 17.1428 6.05549 17.79 5.97406C18.1071 5.9312 18.4757 5.90978 18.48 6.34692C18.4928 6.86978 18.66 7.43549 18.6728 7.86835C18.6986 8.46406 18.6128 9.04263 18.42 9.59978ZM14.8543 8.47263C15.7757 9.11549 16.3971 10.0026 16.7143 11.1383L16.7657 11.4169C16.7743 11.4512 16.7871 11.4598 16.8086 11.4255C17.7814 10.2298 18.0343 8.45549 18.0428 6.93835C18.0431 6.91816 18.039 6.89815 18.0309 6.87967C18.0227 6.86119 18.0108 6.84466 17.9957 6.8312C17.9804 6.81841 17.9625 6.8091 17.9433 6.80391C17.9241 6.79873 17.9039 6.79781 17.8843 6.80121C16.6971 7.00692 15.6557 7.51692 14.76 8.32692C14.7343 8.34835 14.7343 8.37406 14.7557 8.39978C14.7771 8.42549 14.8071 8.45121 14.8543 8.47263ZM7.38427 11.0741C7.7057 10.0026 8.30999 9.14549 9.19284 8.49406C9.24336 8.4791 9.28817 8.44922 9.32141 8.40835C9.33856 8.37835 9.33856 8.35263 9.31284 8.33121C8.45786 7.57508 7.4109 7.0694 6.28713 6.86978C6.26916 6.8659 6.25054 6.8662 6.23271 6.87066C6.21487 6.87512 6.1983 6.88361 6.18427 6.89549C6.17098 6.90738 6.16031 6.9219 6.15293 6.93813C6.14555 6.95436 6.14163 6.97195 6.14141 6.98978C6.11999 8.45978 6.35998 10.2126 7.27284 11.4169C7.2759 11.4206 7.27993 11.4234 7.28448 11.4249C7.28902 11.4264 7.2939 11.4266 7.29856 11.4255C7.3026 11.4243 7.30628 11.4221 7.30928 11.4191C7.31227 11.4161 7.31447 11.4124 7.3157 11.4083L7.38427 11.0741ZM11.13 13.0626C11.13 12.6041 10.95 12.1626 10.6286 11.8412C10.4711 11.6818 10.2836 11.5553 10.0769 11.4689C9.87013 11.3826 9.64831 11.3381 9.42427 11.3381C9.20023 11.3381 8.97842 11.3826 8.77169 11.4689C8.56497 11.5553 8.37744 11.6818 8.21999 11.8412C7.98481 12.0834 7.82539 12.389 7.76124 12.7205C7.69709 13.0519 7.731 13.3949 7.85881 13.7074C7.98662 14.0199 8.20279 14.2883 8.48084 14.4798C8.75889 14.6713 9.08675 14.7775 9.42427 14.7855C9.87856 14.7855 10.3114 14.6012 10.6286 14.2798C10.949 13.9556 11.1291 13.5184 11.13 13.0626Z" fill="#373636"/>
<path d="M16.7143 11.1387C17.3914 10.1058 17.6014 8.70437 17.5843 7.50437C17.5841 7.47561 17.5743 7.44774 17.5564 7.42521C17.5386 7.40268 17.5137 7.38679 17.4857 7.38008C17.4674 7.37601 17.4483 7.37601 17.43 7.38008C16.4995 7.54832 15.6182 7.92164 14.85 8.47294C14.8135 8.45611 14.7812 8.43119 14.7557 8.40008C14.7343 8.37437 14.7343 8.34866 14.76 8.32723C15.6327 7.52832 16.7176 6.99851 17.8843 6.80151C17.9137 6.79683 17.9437 6.80183 17.97 6.81574C17.9963 6.82966 18.0174 6.85174 18.03 6.87866C18.0386 6.8958 18.0429 6.91723 18.0429 6.93866C18.0343 8.4558 17.7814 10.2301 16.8129 11.4258C16.7871 11.4558 16.77 11.4515 16.7657 11.4172L16.7143 11.1387ZM9.19286 8.49437C8.47495 8.01113 7.66285 7.68542 6.81 7.53866C6.70286 7.52151 6.64714 7.56437 6.64714 7.6758C6.63428 8.7858 6.81428 10.1015 7.38428 11.0744L7.31571 11.4087C7.31418 11.4128 7.31163 11.4164 7.30829 11.4192C7.30496 11.4221 7.30096 11.424 7.29667 11.4249C7.29238 11.4257 7.28794 11.4255 7.28377 11.4241C7.2796 11.4228 7.27585 11.4204 7.27286 11.4172C6.36 10.2172 6.12 8.46008 6.14143 6.99008C6.14164 6.97226 6.14556 6.95467 6.15294 6.93844C6.16032 6.9222 6.17099 6.90768 6.18428 6.8958C6.19831 6.88392 6.21489 6.87542 6.23272 6.87097C6.25055 6.86651 6.26917 6.86621 6.28714 6.87008C7.42714 7.0758 8.43428 7.56437 9.31286 8.32723C9.33857 8.35294 9.33857 8.37866 9.32143 8.40866C9.28819 8.44953 9.24337 8.47941 9.19286 8.49437Z" fill="#FED72E"/>
<path d="M16.7143 11.1386C16.432 10.0567 15.7723 9.11125 14.8543 8.4729C15.6212 7.92219 16.501 7.54889 17.43 7.38004C17.4489 7.37618 17.4684 7.37662 17.4871 7.38133C17.5058 7.38604 17.5232 7.39489 17.538 7.40724C17.5528 7.41959 17.5647 7.43511 17.5727 7.45266C17.5807 7.47021 17.5847 7.48933 17.5843 7.50862C17.6014 8.70862 17.3914 10.1058 16.7143 11.1386ZM9.19283 8.49433C8.31782 9.12729 7.68087 10.0359 7.38426 11.0743C6.81426 10.1015 6.63426 8.78576 6.64712 7.67576C6.64712 7.56433 6.70283 7.52147 6.80998 7.53862C7.64998 7.68004 8.44712 8.00147 9.19283 8.49433Z" fill="white"/>
<path d="M18.42 9.6001C19.1314 11.4944 18.9428 13.3801 18.0857 15.163C17.7728 15.6344 17.4942 16.0201 17.2457 16.3072C16.3414 17.3604 15.1661 18.146 13.8471 18.5787C12.84 18.9215 11.8242 18.9472 10.7957 18.6644C8.77711 18.1115 6.94711 16.7701 5.99568 14.8758C5.40702 13.6857 5.1791 12.3495 5.33996 11.0315C5.34425 10.753 5.42568 10.4615 5.57139 10.1658C5.99544 11.0221 6.55394 11.8048 7.22568 12.4844C7.24711 12.5058 7.25996 12.5358 7.26425 12.5701C7.48711 14.7001 8.99996 16.2987 11.0614 16.7144C11.31 16.9072 11.5757 17.053 11.85 17.143C12.24 17.9658 13.1914 17.9272 13.5728 17.113C13.5771 17.1001 13.5942 17.0915 13.6157 17.083C13.6242 17.083 13.6242 17.0744 13.62 17.0701C13.617 17.0658 13.6151 17.0608 13.6143 17.0556C13.6136 17.0504 13.614 17.0451 13.6157 17.0401C14.0442 16.8601 14.3442 16.5644 14.5157 16.1401C15.1817 15.7593 15.7439 15.2207 16.1528 14.5715L16.1442 14.563H16.1357C16.0028 14.5844 15.8742 14.6572 15.75 14.6744C13.8042 14.9272 12.9557 12.3944 14.6528 11.4387C15.42 11.0101 16.3842 11.3187 16.8728 12.0215C16.8759 12.0259 16.8805 12.0289 16.8857 12.0301H16.8942L16.9028 12.0215C17.5617 11.3203 18.0784 10.498 18.4242 9.6001H18.42ZM14.4514 13.7444C14.4171 13.843 14.4214 13.9244 14.46 13.993C14.5457 14.1301 14.6742 14.1558 14.8628 14.0701C15.6342 14.4301 16.5128 14.0744 16.77 13.2472C17.2414 11.7515 15.1757 10.7615 14.3271 12.1672C14.0314 12.6515 14.0742 13.1744 14.4557 13.7444H14.4514Z" fill="#FED72E"/>
<path d="M14.5201 16.1398C14.4388 16.3436 14.3166 16.5286 14.1611 16.6834C14.0056 16.8381 13.82 16.9594 13.6158 17.0398C12.9987 17.1984 12.553 17.3098 11.8501 17.1426C11.565 17.0451 11.2984 16.9003 11.0615 16.7141C10.153 15.7541 10.3844 14.7726 11.4301 14.0569C12.2187 13.5212 11.9187 11.8155 11.9144 11.1641C11.9144 10.9412 11.9787 10.7441 12.1158 10.5684C12.3173 10.3155 12.5873 10.3584 12.7373 10.6284C12.8615 10.8512 12.9258 11.0912 12.9344 11.3526C12.9515 12.0255 12.9258 13.0069 13.2987 13.6412C13.4701 13.9241 13.8044 14.1555 14.0015 14.3612C14.4644 14.8326 14.7387 15.4198 14.5158 16.1398H14.5201ZM13.4573 15.4284C13.6415 15.2141 13.603 15.0684 13.3287 14.9912C13.063 14.9098 12.1544 14.8155 11.8887 15.0941C11.8483 15.137 11.8258 15.1937 11.8258 15.2526C11.8258 15.3116 11.8483 15.3683 11.8887 15.4112C12.0858 15.6255 12.3301 15.7626 12.6173 15.8269C12.8873 15.8912 13.1144 15.8141 13.303 15.6041L13.4573 15.4284Z" fill="white"/>
<path d="M11.1301 13.0631C11.1301 13.5174 10.9501 13.9545 10.6287 14.2802C10.4712 14.4396 10.2837 14.5661 10.077 14.6525C9.87025 14.7389 9.64843 14.7833 9.42439 14.7833C9.20035 14.7833 8.97854 14.7389 8.77181 14.6525C8.56509 14.5661 8.37756 14.4396 8.22011 14.2802C7.98493 14.038 7.82551 13.7324 7.76136 13.401C7.69721 13.0695 7.73112 12.7265 7.85893 12.4141C7.98674 12.1016 8.20291 11.8332 8.48096 11.6417C8.75901 11.4502 9.08688 11.3439 9.42439 11.3359C9.87868 11.3359 10.3115 11.5202 10.6287 11.8417C10.9502 12.1668 11.1304 12.6058 11.1301 13.0631ZM8.58439 13.9674C8.64868 14.1602 8.77296 14.2459 8.94868 14.2159C9.55725 14.3874 10.0501 14.2845 10.4187 13.9031C10.6232 13.6939 10.7562 13.4252 10.7986 13.1357C10.8409 12.8462 10.7904 12.5507 10.6544 12.2917C9.90868 10.9631 7.94582 11.6274 8.13868 13.1574C8.18153 13.4702 8.32725 13.7402 8.58439 13.9674Z" fill="#FED72E"/>
<path d="M14.8628 14.0698C14.9914 13.7356 14.7299 13.5041 14.4514 13.7441C14.0742 13.1741 14.0314 12.6513 14.3228 12.167C15.1799 10.757 17.2414 11.7513 16.7699 13.247C16.7134 13.4368 16.6159 13.6119 16.4843 13.7599C16.3528 13.908 16.1904 14.0253 16.0085 14.1038C15.8267 14.1823 15.6298 14.2199 15.4319 14.214C15.2339 14.2081 15.0397 14.1589 14.8628 14.0698ZM16.2514 12.2141C16.2514 12.1027 16.2085 11.9998 16.1314 11.9141C16.0934 11.8753 16.0481 11.8444 15.9981 11.8233C15.948 11.8022 15.8942 11.7913 15.8399 11.7913C15.7856 11.7913 15.7319 11.8022 15.6818 11.8233C15.6318 11.8444 15.5864 11.8753 15.5485 11.9141C15.4705 11.9928 15.4268 12.0991 15.4268 12.2098C15.4268 12.3206 15.4705 12.4269 15.5485 12.5056C15.6052 12.5655 15.6787 12.6068 15.7594 12.6241C15.8401 12.6413 15.9241 12.6336 16.0003 12.602C16.0765 12.5704 16.1414 12.5164 16.1862 12.4471C16.231 12.3778 16.2537 12.2966 16.2514 12.2141ZM8.9485 14.2156C9.32565 13.907 8.77708 13.4441 8.58422 13.967C8.33844 13.7613 8.17927 13.4706 8.1385 13.1527C7.94565 11.627 9.9085 10.9584 10.6542 12.2913C10.9414 12.8056 10.8256 13.4784 10.4185 13.9027C10.0499 14.2841 9.56136 14.387 8.9485 14.2156ZM10.2342 12.3041C10.2342 12.1927 10.1914 12.0856 10.1142 12.0041C10.0562 11.9458 9.98197 11.9063 9.90121 11.8906C9.82045 11.8749 9.73683 11.8837 9.66116 11.916C9.58549 11.9483 9.52124 12.0026 9.47672 12.0718C9.43219 12.1409 9.40942 12.2219 9.41136 12.3041C9.41136 12.4113 9.45422 12.5184 9.53136 12.5956C9.56958 12.6339 9.615 12.6643 9.66501 12.6851C9.71502 12.7059 9.76864 12.7166 9.82279 12.7166C9.87694 12.7166 9.93056 12.7059 9.98057 12.6851C10.0306 12.6643 10.076 12.6339 10.1142 12.5956C10.1905 12.5177 10.2336 12.4132 10.2342 12.3041Z" fill="#373636"/>
<path d="M15.8399 12.6301C16.0671 12.6301 16.2514 12.4416 16.2514 12.2144C16.2519 12.1598 16.2417 12.1057 16.2214 12.055C16.201 12.0044 16.1709 11.9582 16.1326 11.9192C16.0944 11.8802 16.0489 11.8491 15.9987 11.8277C15.9485 11.8063 15.8945 11.795 15.8399 11.7944C15.7853 11.795 15.7314 11.8063 15.6812 11.8277C15.631 11.8491 15.5854 11.8802 15.5472 11.9192C15.509 11.9582 15.4789 12.0044 15.4585 12.055C15.4381 12.1057 15.4279 12.1598 15.4285 12.2144C15.4285 12.4416 15.6128 12.6301 15.8399 12.6301ZM9.8228 12.7201C10.0499 12.7201 10.2342 12.5316 10.2342 12.3044C10.2348 12.2498 10.2246 12.1957 10.2042 12.145C10.1839 12.0944 10.1537 12.0482 10.1155 12.0092C10.0773 11.9702 10.0318 11.9391 9.98156 11.9177C9.93134 11.8963 9.87739 11.885 9.8228 11.8844C9.76821 11.885 9.71426 11.8963 9.66404 11.9177C9.61381 11.9391 9.5683 11.9702 9.53009 12.0092C9.49189 12.0482 9.46174 12.0944 9.44137 12.145C9.421 12.1957 9.4108 12.2498 9.41137 12.3044C9.41137 12.5316 9.59566 12.7201 9.8228 12.7201ZM14.8628 14.0701C14.6785 14.1559 14.5414 14.1301 14.4599 13.993C14.4214 13.9244 14.4171 13.843 14.4514 13.7444C14.7299 13.5044 14.9914 13.7359 14.8628 14.0701ZM8.94851 14.2159C8.7728 14.2459 8.64851 14.1601 8.58423 13.9673C8.77709 13.4444 9.32566 13.9073 8.94851 14.2159Z" fill="#FFFEE0"/>
<path d="M13.4571 15.4241L13.3028 15.5998C13.1143 15.8141 12.8871 15.8869 12.6171 15.8226C12.3378 15.7609 12.0838 15.616 11.8885 15.4069C11.8482 15.364 11.8257 15.3073 11.8257 15.2483C11.8257 15.1894 11.8482 15.1327 11.8885 15.0898C12.1543 14.8112 13.0628 14.9055 13.3328 14.9869C13.6028 15.0641 13.6414 15.2098 13.4571 15.4241Z" fill="#373636"/>
<path d="M13.6158 17.04L13.6201 17.07C13.6287 17.0743 13.6244 17.0786 13.6201 17.0829C13.5944 17.0915 13.5772 17.1 13.5772 17.1129C13.1915 17.9272 12.2444 17.9658 11.8501 17.1429C12.553 17.3143 12.9987 17.1986 13.6158 17.04Z" fill="#FA7F5B"/>
</g>
<defs>
<clipPath id="clip0_31_11609">
<rect width="24" height="24" fill="white"/>
</clipPath>
</defs>
</svg>

<svg xmlns="http://www.w3.org/2000/svg" width="24" height="24" fill="none" viewBox="0 0 24 24"><g clip-path="url(#a)"><path fill="#F1A841" d="M0 0h24v24H0z"/><path fill="#FED72E" d="M15.964 6.377q-1.073.5-1.748 1.333a4.62 4.62 0 0 0-4.53.244A4.6 4.6 0 0 0 7.98 6.583a6.604 6.604 0 0 1 7.989-.202z"/><path fill="#373636" d="M18.42 9.6a7.4 7.4 0 0 1-1.539 2.43l-.008-.005-.004-.004c-.489-.703-1.453-1.016-2.22-.583-1.698.956-.849 3.489 1.097 3.236.124-.017.253-.09.385-.111h.009l.009.008v.017a4.7 4.7 0 0 1-1.629 1.552c.219-.72-.056-1.312-.514-1.779-.202-.206-.54-.437-.707-.72-.373-.634-.348-1.616-.365-2.288a1.5 1.5 0 0 0-.197-.725c-.154-.27-.42-.312-.621-.06a.9.9 0 0 0-.202.6c0 .643.3 2.353-.484 2.889-1.046.716-1.277 1.697-.369 2.657-2.057-.416-3.574-2.014-3.797-4.148a.14.14 0 0 0-.043-.082 9 9 0 0 1-1.65-2.318 5.1 5.1 0 0 1-.428-2.058c.013-.488.193-1.131.206-1.723.017-.685 2.297.07 2.631.193.686.33 1.26.789 1.706 1.376l.09.129q.032.046.077.021a4.99 4.99 0 0 1 4.097-.129q.046.025.073-.017l.193-.248c.45-.557 1.028-.999 1.748-1.329a9.3 9.3 0 0 1 1.826-.407c.317-.043.686-.064.69.373.013.523.18 1.088.193 1.521A4.6 4.6 0 0 1 18.42 9.6m-3.566-1.127q1.384.963 1.86 2.665l.052.279c.008.034.021.043.043.008.972-1.195 1.225-2.97 1.234-4.487a.14.14 0 0 0-.047-.107.14.14 0 0 0-.112-.03 6.13 6.13 0 0 0-3.124 1.526q-.038.033-.004.073a.3.3 0 0 0 .098.073m-7.47 2.601a4.85 4.85 0 0 1 1.809-2.58.26.26 0 0 0 .128-.086q.029-.044-.008-.077A6.2 6.2 0 0 0 6.287 6.87a.12.12 0 0 0-.103.025.13.13 0 0 0-.043.095c-.021 1.47.219 3.223 1.132 4.427a.03.03 0 0 0 .026.008.03.03 0 0 0 .017-.017zm3.746 1.989a1.73 1.73 0 0 0-1.053-1.594 1.69 1.69 0 0 0-1.857.372 1.736 1.736 0 0 0 1.204 2.945c.455 0 .887-.185 1.205-.506.32-.324.5-.762.501-1.217"/><path fill="#FED72E" d="M16.714 11.139c.677-1.033.887-2.435.87-3.635a.13.13 0 0 0-.098-.124.1.1 0 0 0-.056 0 6.4 6.4 0 0 0-2.58 1.093.3.3 0 0 1-.094-.073q-.034-.04.004-.073a6.14 6.14 0 0 1 3.124-1.525.137.137 0 0 1 .159.137c-.009 1.517-.262 3.291-1.23 4.487q-.04.043-.047-.009zM9.193 8.494A6.1 6.1 0 0 0 6.81 7.54c-.107-.017-.163.025-.163.137-.013 1.11.167 2.425.737 3.398l-.068.335-.008.01a.026.026 0 0 1-.035-.002C6.36 10.217 6.12 8.46 6.14 6.99a.13.13 0 0 1 .043-.094.12.12 0 0 1 .103-.026 6.2 6.2 0 0 1 3.026 1.457q.037.038.008.082a.26.26 0 0 1-.128.085"/><path fill="#fff" d="M16.714 11.139a4.7 4.7 0 0 0-1.86-2.666A6.4 6.4 0 0 1 17.43 7.38a.128.128 0 0 1 .154.129c.017 1.2-.193 2.597-.87 3.63M9.193 8.494a4.8 4.8 0 0 0-1.809 2.58c-.57-.973-.75-2.288-.737-3.398 0-.112.056-.155.163-.137.84.141 1.637.462 2.383.955"/><path fill="#FED72E" d="M18.42 9.6c.711 1.894.523 3.78-.334 5.563-.313.471-.592.857-.84 1.144a7.6 7.6 0 0 1-3.399 2.272 5.1 5.1 0 0 1-3.051.085c-2.019-.553-3.849-1.894-4.8-3.788a6.8 6.8 0 0 1-.656-3.844c.004-.279.086-.57.231-.866a9 9 0 0 0 1.655 2.318.14.14 0 0 1 .038.086C7.487 14.7 9 16.3 11.061 16.714c.249.193.515.339.789.429.39.823 1.341.784 1.723-.03.004-.013.021-.021.043-.03.008 0 .008-.009.004-.013a.03.03 0 0 1-.004-.03 1.6 1.6 0 0 0 .9-.9 4.7 4.7 0 0 0 1.637-1.569l-.009-.008h-.008c-.133.021-.262.094-.386.111-1.946.253-2.794-2.28-1.097-3.235.767-.429 1.731-.12 2.22.582a.02.02 0 0 0 .013.01h.008l.009-.01a7.4 7.4 0 0 0 1.521-2.42zm-3.969 4.144q-.05.147.009.249c.086.137.214.163.403.077.771.36 1.65.004 1.907-.823.471-1.495-1.594-2.485-2.443-1.08-.296.485-.253 1.007.129 1.577z"/><path fill="#fff" d="M14.52 16.14a1.6 1.6 0 0 1-.904.9c-.617.158-1.063.27-1.766.103a2.7 2.7 0 0 1-.788-.429c-.909-.96-.678-1.941.368-2.657.789-.536.489-2.242.484-2.893q-.002-.333.202-.596c.201-.252.471-.21.621.06q.186.333.197.725c.018.672-.008 1.654.365 2.288.171.283.505.515.703.72.462.472.737 1.059.514 1.779zm-1.063-.712c.184-.214.146-.36-.128-.437-.266-.081-1.175-.175-1.44.103a.23.23 0 0 0 0 .317q.296.321.728.416.404.094.686-.223z"/><path fill="#FED72E" d="M11.13 13.063a1.73 1.73 0 0 1-1.053 1.59A1.692 1.692 0 0 1 7.761 13.4a1.736 1.736 0 0 1 1.663-2.065c.455 0 .888.184 1.205.506.321.325.501.764.501 1.221m-2.546.904c.065.193.189.279.365.249.608.171 1.101.069 1.47-.313a1.385 1.385 0 0 0 .235-1.611c-.745-1.329-2.708-.665-2.515.865.043.313.188.583.445.81"/><path fill="#373636" d="M14.863 14.07c.128-.334-.133-.566-.412-.326q-.566-.853-.128-1.577c.857-1.41 2.918-.416 2.447 1.08a1.353 1.353 0 0 1-1.907.823m1.388-1.856a.44.44 0 0 0-.12-.3.41.41 0 0 0-.582 0 .42.42 0 0 0 0 .592.408.408 0 0 0 .702-.292m-7.303 2.002c.378-.309-.17-.772-.364-.249a1.27 1.27 0 0 1-.445-.814c-.193-1.526 1.77-2.195 2.515-.862.287.515.172 1.187-.236 1.612q-.551.57-1.47.313m1.286-1.912a.411.411 0 1 0-.823 0 .42.42 0 0 0 .254.381.41.41 0 0 0 .57-.38"/><path fill="#FFFEE0" d="M15.84 12.63a.415.415 0 0 0 .381-.575.42.42 0 0 0-.381-.26.416.416 0 0 0-.412.42c0 .227.185.415.412.415m-6.017.09a.415.415 0 0 0 .381-.575.42.42 0 0 0-.381-.26.417.417 0 0 0-.412.42c0 .227.185.415.412.415m5.04 1.35c-.184.086-.322.06-.403-.077q-.06-.102-.009-.249c.279-.24.54-.008.412.326m-5.914.146c-.176.03-.3-.056-.365-.249.193-.523.742-.06.365.249"/><path fill="#373636" d="m13.457 15.424-.154.176a.65.65 0 0 1-.686.223 1.4 1.4 0 0 1-.729-.416.23.23 0 0 1 0-.317c.266-.279 1.175-.184 1.445-.103.27.077.308.223.124.437"/><path fill="#FA7F5B" d="m13.616 17.04.004.03c.009.004.004.009 0 .013-.026.009-.043.017-.043.03-.386.814-1.333.853-1.727.03.703.171 1.149.056 1.766-.103"/></g><defs><clipPath id="a"><path fill="#fff" d="M0 0h24v24H0z"/></clipPath></defs></svg>
